X:1
T:L'Indifférente
T:Les Sauvages
T:Jean-Philippe Rameau
T:Suite en Sol Nr 6
%%score { ( 1 4 ) | ( 2 3 5 ) }
L:1/8
Q:1/4=180
M:4/4
K:Bb
V:1 treble nm="Piano"
V:4 treble 
V:2 bass 
V:3 bass 
V:5 bass 
V:1
!mf! B4 DGBc | A2 D2 ^F2 A2 | c4 DAcd | B2 D2 G2 B2 | d4 GBdg | eedd ccBB | AAGG ^FG{A} TG2({FG)} | %7
 AG^F=E D z z2 | B4 DGBc | A2 D2 ^F2 A2 | c4 DAcd | B2 D2 G2 B2 | d4 GBdg | eedd ccBB | %14
 AdcB AGA^F | G8 || d4 FBde | c2 F2 A2 c2 | e4 Acef | d2 F2 B2 d2 | f4 Bdfb | ggff eedd | %22
 ccBB AB{c} TB2({AB)} | cBAG FEDC | E4 B,EBG | E4 B,EBG | E4 CEcE |{F} TE4 D4 | G4 CEGA | F4 B4 | %30
 B4 ABcA | B8 || B4 DGBc | A2 D2 ^F2 A2 | c4 DAcd | B2 D2 G2 B2 | d4 GBdg | eedd ccBB | %38
 AAGG ^FG{A} TG2({FG)} | AG^F=E D z z2 | B4 DGBc | A2 D2 ^F2 A2 | c4 DAcd | B2 D2 G2 B2 | d4 GBdg | %45
 eedd ccBB | AdcB AGA^F | G8 || b4 dgbc' | bagf =edc=B | Tg4 A^c=ea | gf=ed ^c=BcA | f4 Adfg | %53
 f=edc =BAG^F | d4 EGBe |{d} T^c4{=B} A4 | f4 Adfg | =e=B=b z z4 | f4 Adfg | =e=B=b z z4 | %60
 =e4 A^cef | dA a6- | (a2 Pg)f =ede^c | dcBA G^F=ED || B4 DGBc | A2 D2 ^F2 A2 | c4 DAcd | %67
 B2 D2 G2 B2 | d4 GBdg | eedd ccBB | AAGG ^FG{A} TG2({FG)} | AG^F=E D z z2 | B4 DGBc | %73
 A2 D2 ^F2 A2 | c4 DAcd | B2 D2 G2 B2 | d4 GBdg | eedd ccBB | AdcB AGA^F | G8 |] %80
V:2
 G,,4 G,2 G,,2 | D,4 ^F,A,C[I:staff -1]E |[I:staff +1] ^F,,2 A,,2 D,2 D,,2 | G,,4 B,,D,G,B, | %4
 B,,,2 G,,2 B,,2 D,2 | C2 B,2 A,2 G,2 | C2 B,2 A,2 G,2 | ^F,4 z CPB,A, | G,4 G,,2 G,2 | %9
 D,4 ^F,A,C[I:staff -1]E |[I:staff +1] ^F,,2 A,,2 D,2 D,,2 | G,,4 B,,D,G,B, | B,,,2 G,,2 B,,2 D,2 | %13
 C2 B,2 A,2 G,2 | C,2 E2 D,2 D2 | z2 B,[G,B,]- [G,B,]4 || B,4 B,,2 B,2 | F,4 A,C[I:staff -1]FA | %18
[I:staff +1] A,,2 C,2 F,2 F,,2 | B,,4 D,F,B,D | D,,2 F,,2 B,,2 D,2 | [E,E]2 [F,D]2 [G,C]2 [F,B,]2 | %22
 E2 D2 [F,C]2 [G,B,]2 | [F,A,]8 | [G,B,]2 z2 z4 | [G,B,]2 z2 z4 | [A,C]2 z2 z4 | B,4 B,,4 | %28
 E,6 E,2 | D,4 B,,D,F,B, | z2 C,2 F,4 | B,,D,F,B, DB,G,D, || G,,4 G,2 G,,2 | %33
 D,4 ^F,A,C[I:staff -1]E |[I:staff +1] ^F,,2 A,,2 D,2 D,,2 | G,,4 B,,D,G,B, | B,,,2 G,,2 B,,2 D,2 | %37
 C2 B,2 A,2 G,2 | C2 B,2 A,2 G,2 | ^F,4 z CPB,A, | G,4 G,,2 G,2 | D,4 ^F,A,C[I:staff -1]E | %42
[I:staff +1] ^F,,2 A,,2 D,2 D,,2 | G,,4 B,,D,G,B, | B,,,2 G,,2 B,,2 D,2 | C2 B,2 A,2 G,2 | %46
 C,2 E2 D,2 D2 | z2 B,[G,B,]- [G,B,]4 || x8 | x8 | x8 | D4 D,4 | D4 D,2 D2 | P^C2 =C6 | %54
 P=B,2 _B,6 | A,4 A,,4 | A,4 A,,2 A,2 | ^G,3 =B,[I:staff -1] DFD[I:staff +1]G, | A,4 A,,2 A,2 | %59
 ^G,3 =B,[I:staff -1] DFD[I:staff +1]^F, | =G,4 A,,2 G,2 | ^F,3 A,[I:staff -1] DED[I:staff +1]=E, | %62
 F,2 G,2 A,4 | [D,,D,]8 || G,,4 G,2 G,,2 | D,4 ^F,A,C[I:staff -1]E | %66
[I:staff +1] ^F,,2 A,,2 D,2 D,,2 | G,,4 B,,D,G,B, | B,,,2 G,,2 B,,2 D,2 | C2 B,2 A,2 G,2 | %70
 C2 B,2 A,2 G,2 | ^F,4 z CPB,A, | G,4 G,,2 G,2 | D,4 ^F,A,C[I:staff -1]E | %74
[I:staff +1] ^F,,2 A,,2 D,2 D,,2 | G,,4 B,,D,G,B, | B,,,2 G,,2 B,,2 D,2 | C2 B,2 A,2 G,2 | %78
 C,2 E2 D,2 D2 | z2 B,-[G,B,]- [G,B,]2 z2 |] %80
V:3
 x8 | x8 | x8 | x8 | x8 | C,2 D,2 E,2 D,2 | C,2 D,2 E,4 | D,4 x4 | x8 | x8 | x8 | x8 | x8 | %13
 C,2 D,2 E,2 D,2 | x8 | G,,8 || x8 | x8 | x8 | x8 | x8 | x8 | E,4 x4 | x8 | x8 | x8 | x8 | x8 | %28
 z4 E,,4 | x8 | F,,6 F,,2 | x8 || x8 | x8 | x8 | x8 | x8 | C,2 D,2 E,2 D,2 | C,2 D,2 E,4 | D,4 x4 | %40
 x8 | x8 | x8 | x8 | x8 | C,2 D,2 E,2 D,2 | x8 | G,,8 || x8 | x8 | x8 | x8 | x8 | x8 | x8 | x8 | %56
 x8 | x8 | x8 | x8 | x8 | x8 | x4 z2 A,,2 | x8 || x8 | x8 | x8 | x8 | x8 | C,2 D,2 E,2 D,2 | %70
 C,2 D,2 E,4 | D,4 x4 | x8 | x8 | x8 | x8 | x8 | C,2 D,2 E,2 D,2 | x8 | G,,8 |] %80
V:4
 x8 | x8 | x8 | x8 | x8 | x8 | x8 | x8 | x8 | x8 | x8 | x8 | x8 | x8 | x8 | z"_m.d." D- D2- D4 || %16
 x8 | x8 | x8 | x8 | x8 | x8 | x8 | x8 | x8 | x8 | x8 | x8 | x8 | z2 D4 D2 | C4 x4 | x8 || x8 | %33
 x8 | x8 | x8 | x8 | x8 | x8 | x8 | x8 | x8 | x8 | x8 | x8 | x8 | x8 | z"_m.d." D- D2- D4 || %48
 G4 G,2 G2 | P^F2 =F2- F4 |{F} =E4 A,4 | x8 | x8 | x8 | x8 | x8 | x8 | x8 | x8 | x8 | x8 | x8 | %62
 x8 | x8 || x8 | x8 | x8 | x8 | x8 | x8 | x8 | x8 | x8 | x8 | x8 | x8 | x8 | x8 | x8 | %79
 z D- D2- D4 |] %80
V:5
 x8 | x8 | x8 | x8 | x8 | x8 | x8 | x8 | x8 | x8 | x8 | x8 | x8 | x8 | x8 | z2 z D,, G,,,4 || x8 | %17
 x8 | x8 | x8 | x8 | x8 | x8 | x8 | x8 | x8 | x8 | x8 | x8 | x8 | x8 | x8 || x8 | x8 | x8 | x8 | %36
 x8 | x8 | x8 | x8 | x8 | x8 | x8 | x8 | x8 | x8 | x8 | z2 z D,, G,,,4 || x8 | x8 | x8 | x8 | x8 | %53
 x8 | x8 | x8 | x8 | x8 | x8 | x8 | x8 | x8 | x8 | x8 || x8 | x8 | x8 | x8 | x8 | x8 | x8 | x8 | %72
 x8 | x8 | x8 | x8 | x8 | x8 | x8 | z2 z D,, G,,,4 |] %80

